X:3795
T:Lord Moira's Welcome To Scotland. HSJJ.185
O:england
M:4/4
L:1/8
Q:120
S:HSJ Jackson,Wyresdale,Lancs.1823
R:Strathspey
A:Lancashire
H:1823
K:G
G<GG<G B<dd2|cA c/B/A/G/ A>G FD|G<GG<G B<dd2|e>gf>ag4:|
|b>ga>gf2d2|e<eg>e d>cBG|g<gb>g a>gfd|eg f/g/a/f/g2ga/b/|
c'>ab>g a>geg|d>Bg>B c/B/A/G/ A>B|G<GG<G c<ee2|dg f/g/a/f/g2 |]


